assets/ssr.svg

<svg viewBox="0 0 512 512"
  xmlns="http://www.w3.org/2000/svg">
  <path d="m480.109375 128.144531-244.125-20.015625v295.742188l244.125-20.015625zm0 0" fill="#03232e"/>
  <g fill="#07485e">
    <path d="m31.894531 128.144531v255.710938l224.109375 20.015625v-295.742188zm0 0"/>
    <path d="m512 0h-255.996094l-20.019531 64.070312 20.019531 64.074219h255.996094zm0 0"/>
    <path d="m512 320.070312v-128.140624h-255.996094l-20.019531 64.070312 20.019531 64.070312zm0 0"/>
    <path d="m512 512v-128.144531h-255.996094l-20.019531 64.074219 20.019531 64.070312zm0 0"/>
  </g>
  <path d="m0 0h256.003906v128.144531h-256.003906zm0 0" fill="#0b799d"/>
  <path d="m0 191.929688h256.003906v128.140624h-256.003906zm0 0" fill="#0b799d"/>
  <path d="m0 383.855469h256.003906v128.144531h-256.003906zm0 0" fill="#0b799d"/>
  <path d="m326.070312 49.070312h138.089844v30h-138.089844zm0 0" fill="#b4d2d7"/>
  <path d="m326.070312 241h138.089844v30h-138.089844zm0 0" fill="#b4d2d7"/>
  <path d="m326.070312 432.929688h138.089844v30h-138.089844zm0 0" fill="#b4d2d7"/>
  <path d="m47.839844 49.070312h31.890625v30h-31.890625zm0 0" fill="#00ff94"/>
  <path d="m111.625 49.070312h31.894531v30h-31.894531zm0 0" fill="#ffd422"/>
  <path d="m47.839844 241h31.890625v30h-31.890625zm0 0" fill="#00ff94"/>
  <path d="m111.625 241h31.894531v30h-31.894531zm0 0" fill="#ffd422"/>
  <path d="m47.839844 432.929688h31.890625v30h-31.890625zm0 0" fill="#00ff94"/>
  <path d="m111.625 432.929688h31.894531v30h-31.894531zm0 0" fill="#ffd422"/>
</svg>

<svg viewBox="0 0 512 512" xmlns="http://www.w3.org/2000/svg"><path d="M480.11 128.145l-244.126-20.016V403.87l244.125-20.016zm0 0" fill="#03232e"/><g fill="#07485e"><path d="M31.895 128.145v255.71l224.109 20.016V108.13zm0 0"/><path d="M512 0H256.004l-20.02 64.07 20.02 64.075H512zm0 0M512 320.07V191.93H256.004L235.984 256l20.02 64.07zm0 0M512 512V383.855H256.004l-20.02 64.075 20.02 64.07zm0 0"/></g><path d="M0 0h256.004v128.145H0zm0 0M0 191.93h256.004v128.14H0zm0 0M0 383.855h256.004V512H0zm0 0" fill="#0b799d"/><path d="M326.07 49.07h138.09v30H326.07zm0 0M326.07 241h138.09v30H326.07zm0 0M326.07 432.93h138.09v30H326.07zm0 0" fill="#b4d2d7"/><path d="M47.84 49.07h31.89v30H47.84zm0 0" fill="#00ff94"/><path d="M111.625 49.07h31.895v30h-31.895zm0 0" fill="#ffd422"/><path d="M47.84 241h31.89v30H47.84zm0 0" fill="#00ff94"/><path d="M111.625 241h31.895v30h-31.895zm0 0" fill="#ffd422"/><path d="M47.84 432.93h31.89v30H47.84zm0 0" fill="#00ff94"/><path d="M111.625 432.93h31.895v30h-31.895zm0 0" fill="#ffd422"/></svg>
